slides/images/logos/erg-coin-symbol.svg

<?xml version="1.0" encoding="UTF-8" standalone="no"?>
<!-- Generator: Adobe Illustrator 24.0.0, SVG Export Plug-In . SVG Version: 6.00 Build 0)  -->

<svg
   xmlns:dc="http://purl.org/dc/elements/1.1/"
   xmlns:cc="http://creativecommons.org/ns#"
   xmlns:rdf="http://www.w3.org/1999/02/22-rdf-syntax-ns#"
   xmlns:svg="http://www.w3.org/2000/svg"
   xmlns="http://www.w3.org/2000/svg"
   xmlns:sodipodi="http://sodipodi.sourceforge.net/DTD/sodipodi-0.dtd"
   xmlns:inkscape="http://www.inkscape.org/namespaces/inkscape"
   version="1.1"
   id="Layer_1"
   x="0px"
   y="0px"
   viewBox="0 0 58.4 58.4"
   style="enable-background:new 0 0 58.4 58.4;"
   xml:space="preserve"
   sodipodi:docname="erg-coin-symbol.svg"
   inkscape:version="0.92.5 (2060ec1f9f, 2020-04-08)"><metadata
   id="metadata20"><rdf:RDF><cc:Work
       rdf:about=""><dc:format>image/svg+xml</dc:format><dc:type
         rdf:resource="http://purl.org/dc/dcmitype/StillImage" /></cc:Work></rdf:RDF></metadata><defs
   id="defs18" /><sodipodi:namedview
   pagecolor="#ffffff"
   bordercolor="#666666"
   borderopacity="1"
   objecttolerance="10"
   gridtolerance="10"
   guidetolerance="10"
   inkscape:pageopacity="0"
   inkscape:pageshadow="2"
   inkscape:window-width="1920"
   inkscape:window-height="1055"
   id="namedview16"
   showgrid="false"
   inkscape:zoom="15.068493"
   inkscape:cx="29.200001"
   inkscape:cy="29.200001"
   inkscape:window-x="1920"
   inkscape:window-y="0"
   inkscape:window-maximized="1"
   inkscape:current-layer="Layer_1" />
<style
   type="text/css"
   id="style2">
	.st0{fill-rule:evenodd;clip-rule:evenodd;}
</style>
<title
   id="title4">Group 16</title>
<desc
   id="desc6">Created with Sketch.</desc>
<path
   sodipodi:type="star"
   style="fill:#ffffff;fill-opacity:1;fill-rule:nonzero;stroke:none;stroke-width:1;stroke-linecap:round;stroke-linejoin:bevel;stroke-miterlimit:4;stroke-dasharray:none;stroke-opacity:1;paint-order:stroke fill markers"
   id="path833"
   sodipodi:sides="8"
   sodipodi:cx="29.531818"
   sodipodi:cy="28.735455"
   sodipodi:r1="27.560093"
   sodipodi:r2="25.462206"
   sodipodi:arg1="1.3077122"
   sodipodi:arg2="1.7004112"
   inkscape:flatsided="true"
   inkscape:rounded="0"
   inkscape:randomized="0"
   d="M 36.69909,55.347274 15.782447,52.620879 2.919999,35.902727 5.6463937,14.986083 22.364546,2.1236351 43.28119,4.8500299 56.143638,21.568182 53.417243,42.484826 Z"
   transform="rotate(-30,29.761708,29.858872)" /><g
   id="main">
	<g
   id="Group-16"
   transform="translate(-70.000000, -35.000000)">
		<g
   transform="translate(70.000000, 34.000000)"
   id="g11">
			<g
   id="Group-15"
   transform="translate(0.000000, 0.830280)">
				<path
   id="Fill-9"
   class="st0"
   d="M11.2,47.8l18.3,7.4l18.2-7.8L55,29.1l-7.8-18.2L28.9,3.6l-18.2,7.8L3.4,29.7L11.2,47.8z       M29.5,58.6c-0.2,0-0.4,0-0.6-0.1L9.3,50.6c-0.4-0.2-0.7-0.5-0.9-0.9L0.1,30.3c-0.2-0.4-0.2-0.8,0-1.3L8,9.5      c0.2-0.4,0.5-0.7,0.9-0.9l19.4-8.3c0.4-0.2,0.8-0.2,1.3,0l19.6,7.9C49.5,8.3,49.8,8.6,50,9l8.3,19.4c0.2,0.4,0.2,0.8,0,1.3      l-7.9,19.6c-0.2,0.4-0.5,0.7-0.9,0.9l-19.4,8.3C30,58.6,29.7,58.6,29.5,58.6z" />
				<polygon
   id="Fill-10"
   class="st0"
   points="33.4,29.1 25.6,37.7 38,37.7 38,41.5 20.5,41.5 20.5,37.7 28.3,29.1 20.5,21       20.5,17.3 38,17.3 38,21 25.8,21     " />
			</g>
		</g>
	</g>
</g>
</svg>

<?xml version="1.0" encoding="UTF-8" standalone="no"?>
<!-- Generator: Adobe Illustrator 24.0.0, SVG Export Plug-In . SVG Version: 6.00 Build 0)  -->

<svg
   xmlns:dc="http://purl.org/dc/elements/1.1/"
   xmlns:cc="http://creativecommons.org/ns#"
   xmlns:rdf="http://www.w3.org/1999/02/22-rdf-syntax-ns#"
   xmlns:svg="http://www.w3.org/2000/svg"
   xmlns="http://www.w3.org/2000/svg"
   xmlns:sodipodi="http://sodipodi.sourceforge.net/DTD/sodipodi-0.dtd"
   xmlns:inkscape="http://www.inkscape.org/namespaces/inkscape"
   version="1.1"
   id="Layer_1"
   x="0px"
   y="0px"
   viewBox="0 0 499.99999 499.99999"
   xml:space="preserve"
   sodipodi:docname="erg-coin-symbol.svg"
   inkscape:version="0.92.5 (2060ec1f9f, 2020-04-08)"
   width="500"
   height="500"><metadata
   id="metadata20"><rdf:RDF><cc:Work
       rdf:about=""><dc:format>image/svg+xml</dc:format><dc:type
         rdf:resource="http://purl.org/dc/dcmitype/StillImage" /><dc:title>Group 16</dc:title></cc:Work></rdf:RDF></metadata><defs
   id="defs18" /><sodipodi:namedview
   pagecolor="#ffffff"
   bordercolor="#666666"
   borderopacity="1"
   objecttolerance="10"
   gridtolerance="10"
   guidetolerance="10"
   inkscape:pageopacity="0"
   inkscape:pageshadow="2"
   inkscape:window-width="1920"
   inkscape:window-height="1023"
   id="namedview16"
   showgrid="false"
   inkscape:zoom="1.648"
   inkscape:cx="250"
   inkscape:cy="250"
   inkscape:window-x="0"
   inkscape:window-y="0"
   inkscape:window-maximized="1"
   inkscape:current-layer="Layer_1"
   fit-margin-top="0"
   fit-margin-left="0"
   fit-margin-right="0"
   fit-margin-bottom="0" />
<style
   type="text/css"
   id="style2">
	.st0{fill-rule:evenodd;clip-rule:evenodd;}
</style>
<title
   id="title4">Group 16</title>
<desc
   id="desc6">Created with Sketch.</desc>
<g
   id="g1971"
   transform="matrix(8.5470085,0,0,8.5543199,0.42735043,0.16869119)"><path
     transform="rotate(-30,29.761708,29.858872)"
     d="M 36.69909,55.347274 15.782447,52.620879 2.919999,35.902727 5.6463937,14.986083 22.364546,2.1236351 43.28119,4.8500299 56.143638,21.568182 53.417243,42.484826 Z"
     inkscape:randomized="0"
     inkscape:rounded="0"
     inkscape:flatsided="true"
     sodipodi:arg2="1.7004112"
     sodipodi:arg1="1.3077122"
     sodipodi:r2="25.462206"
     sodipodi:r1="27.560093"
     sodipodi:cy="28.735455"
     sodipodi:cx="29.531818"
     sodipodi:sides="8"
     id="path833"
     style="fill:#ffffff;fill-opacity:1;fill-rule:nonzero;stroke:none;stroke-width:1;stroke-linecap:round;stroke-linejoin:bevel;stroke-miterlimit:4;stroke-dasharray:none;stroke-opacity:1;paint-order:stroke fill markers"
     sodipodi:type="star" /><g
     id="main">
	<g
   transform="translate(-70,-35)"
   id="Group-16">
		<g
   id="g11"
   transform="translate(70,34)">
			<g
   transform="translate(0,0.83028)"
   id="Group-15">
				<path
   d="M 11.2,47.8 29.5,55.2 47.7,47.4 55,29.1 47.2,10.9 28.9,3.6 10.7,11.4 3.4,29.7 Z m 18.3,10.8 c -0.2,0 -0.4,0 -0.6,-0.1 L 9.3,50.6 C 8.9,50.4 8.6,50.1 8.4,49.7 L 0.1,30.3 C -0.1,29.9 -0.1,29.5 0.1,29 L 8,9.5 C 8.2,9.1 8.5,8.8 8.9,8.6 L 28.3,0.3 c 0.4,-0.2 0.8,-0.2 1.3,0 L 49.2,8.2 C 49.5,8.3 49.8,8.6 50,9 l 8.3,19.4 c 0.2,0.4 0.2,0.8 0,1.3 l -7.9,19.6 c -0.2,0.4 -0.5,0.7 -0.9,0.9 l -19.4,8.3 c -0.1,0.1 -0.4,0.1 -0.6,0.1 z"
   class="st0"
   id="Fill-9"
   inkscape:connector-curvature="0"
   style="clip-rule:evenodd;fill-rule:evenodd" />
				<polygon
   points="20.5,41.5 20.5,37.7 28.3,29.1 20.5,21 20.5,17.3 38,17.3 38,21 25.8,21 33.4,29.1 25.6,37.7 38,37.7 38,41.5 "
   class="st0"
   id="Fill-10"
   style="clip-rule:evenodd;fill-rule:evenodd" />
			</g>
		</g>
	</g>
</g></g>
</svg>
